images/forbes.svg

<svg width="224" height="56" viewBox="0 0 224 56" fill="none" xmlns="http://www.w3.org/2000/svg">
<path d="M135.983 15.9244C132.392 15.9244 129.571 16.6958 126.748 18.2355C126.748 10.016 126.748 2.56778 127.006 0L109.815 3.08104V4.6223L111.611 4.87893C113.918 5.39219 114.691 6.67534 115.199 9.75935C115.716 15.9244 115.457 48.8041 115.199 54.1993C119.817 55.2273 124.693 55.9987 129.569 55.9987C143.168 55.9987 151.377 47.521 151.377 34.1629C151.377 23.6322 144.707 15.9244 135.983 15.9244V15.9244ZM130.082 53.1713C129.055 53.1713 127.771 53.1713 127.003 52.9162C126.745 49.3204 126.491 34.1629 126.745 20.8063C128.285 20.2915 129.31 20.0349 130.595 20.0349C136.243 20.0349 139.321 26.7132 139.321 34.9313C139.32 45.2098 135.471 53.1713 130.082 53.1713V53.1713ZM45.1569 1.02652H0V3.33767L2.56617 3.5943C5.89982 4.10756 7.18439 6.16208 7.69555 11.0425C8.46747 20.2901 8.20967 36.9888 7.69555 44.9488C7.18291 49.8307 5.9013 52.1433 2.56617 52.397L0 52.9132V54.9677H28.9924V52.9132L25.9136 52.397C22.5784 52.1418 21.2954 49.8307 20.7827 44.9488C20.5249 41.6081 20.2686 36.213 20.2686 29.5361L26.4262 29.7928C30.2755 29.7928 32.0697 32.8753 32.8402 37.241H35.15V19.0084H32.8402C32.0682 23.3756 30.2755 26.4566 26.4262 26.4566L20.2701 26.7147C20.2701 17.9804 20.5264 9.76083 20.7842 4.88041H29.7628C36.6924 4.88041 40.2838 9.24609 42.8485 16.9539L45.4147 16.1825L45.1569 1.02652V1.02652Z" fill="#1E2949"/>
<path d="M59.7818 15.411C72.6112 15.411 79.0251 24.1453 79.0251 35.704C79.0251 46.7495 71.8407 56 59.0114 56C46.1835 56 39.7695 47.2642 39.7695 35.704C39.7695 24.6585 46.9524 15.411 59.7818 15.411V15.411ZM59.0114 17.9802C53.3664 17.9802 51.827 25.6865 51.827 35.704C51.827 45.4648 54.3931 53.4278 59.5255 53.4278C65.4223 53.4278 66.9647 45.7215 66.9647 35.704C66.9647 25.9432 64.4015 17.9802 59.0114 17.9802ZM154.711 35.9621C154.711 25.4299 161.381 15.411 174.467 15.411C185.24 15.411 190.373 23.3754 190.373 33.9061H166.512C166.254 43.4103 170.872 50.3467 180.11 50.3467C184.216 50.3467 186.268 49.3217 188.836 47.5223L189.859 48.8055C187.293 52.4013 181.65 56 174.467 56C162.921 55.9985 154.711 47.7789 154.711 35.9621V35.9621ZM166.512 31.0817L178.571 30.8236C178.571 25.6865 177.8 17.9802 173.44 17.9802C169.08 17.9802 166.767 25.1718 166.512 31.0817V31.0817ZM220.91 17.467C217.831 16.1809 213.727 15.411 209.109 15.411C199.617 15.411 193.713 21.0613 193.713 27.7411C193.713 34.4209 198.071 37.2453 204.236 39.3013C210.648 41.6109 212.445 43.4103 212.445 46.4928C212.445 49.5754 210.135 52.3998 206.03 52.3998C201.157 52.3998 197.562 49.5754 194.741 41.8676L192.944 42.3838L193.202 53.6859C196.281 54.969 201.924 55.9985 206.8 55.9985C216.807 55.9985 223.223 50.8585 223.223 42.8971C223.223 37.5019 220.399 34.4209 213.728 31.8501C206.542 29.0257 203.979 27.2278 203.979 23.8872C203.979 20.548 206.292 18.2354 209.371 18.2354C213.986 18.2354 217.065 21.0613 219.378 27.9977L221.172 27.4844L220.91 17.467V17.467ZM112.378 16.439C108.018 13.8727 100.319 15.1543 96.2149 24.4034L96.4697 15.4125L79.2814 18.7516V20.2929L81.0772 20.5495C83.3885 20.8076 84.4123 22.0908 84.6701 25.4314C85.1827 31.5964 84.9264 42.3868 84.6701 47.7804C84.4123 50.86 83.3885 52.4013 81.0772 52.6594L79.2814 52.9175V54.972H103.141V52.9175L100.063 52.6594C97.498 52.4013 96.7275 50.86 96.4697 47.7804C95.9571 42.8985 95.9571 33.1377 96.2149 26.9727C97.4965 25.1733 103.141 23.6335 108.272 26.9727L112.378 16.439V16.439Z" fill="#1E2949"/>
</svg>

<svg width="224" height="56" fill="none" xmlns="http://www.w3.org/2000/svg"><path d="M135.983 15.924c-3.591 0-6.412.772-9.235 2.311 0-8.219 0-15.667.258-18.235l-17.191 3.081v1.541l1.796.257c2.307.513 3.08 1.796 3.588 4.88.517 6.165.258 39.045 0 44.44 4.618 1.028 9.494 1.8 14.37 1.8 13.599 0 21.808-8.478 21.808-21.836 0-10.53-6.67-18.239-15.394-18.239zm-5.901 37.247c-1.027 0-2.311 0-3.079-.255-.258-3.596-.512-18.753-.258-32.11 1.54-.515 2.565-.771 3.85-.771 5.648 0 8.726 6.678 8.726 14.896-.001 10.279-3.85 18.24-9.239 18.24zM45.157 1.027H0v2.31l2.566.257c3.334.514 4.618 2.568 5.13 7.449.771 9.247.514 25.946 0 33.906-.513 4.882-1.795 7.194-5.13 7.448L0 52.913v2.055h28.992v-2.055l-3.078-.516c-3.336-.255-4.619-2.566-5.131-7.448-.258-3.34-.514-8.736-.514-15.413l6.157.257c3.85 0 5.644 3.082 6.414 7.448h2.31V19.008h-2.31c-.772 4.368-2.565 7.449-6.414 7.449l-6.156.258c0-8.735.256-16.954.514-21.835h8.979c6.93 0 10.52 4.366 13.085 12.074l2.567-.771-.258-15.156z" fill="#1E2949"/><path d="M59.782 15.411c12.83 0 19.243 8.734 19.243 20.293C79.025 46.749 71.841 56 59.011 56 46.183 56 39.77 47.264 39.77 35.704c0-11.046 7.183-20.293 20.013-20.293zm-.77 2.57c-5.646 0-7.185 7.705-7.185 17.723 0 9.76 2.566 17.724 7.699 17.724 5.896 0 7.439-7.706 7.439-17.724 0-9.76-2.564-17.724-7.954-17.724zm95.699 17.981c0-10.532 6.67-20.551 19.756-20.551 10.773 0 15.906 7.964 15.906 18.495h-23.861c-.258 9.504 4.36 16.44 13.598 16.44 4.106 0 6.158-1.024 8.726-2.824l1.023 1.284C187.293 52.4 181.65 56 174.467 56c-11.546-.002-19.756-8.221-19.756-20.038zm11.801-4.88 12.059-.258c0-5.138-.771-12.844-5.131-12.844s-6.673 7.192-6.928 13.102zm54.398-13.615c-3.079-1.286-7.183-2.056-11.801-2.056-9.492 0-15.396 5.65-15.396 12.33s4.358 9.504 10.523 11.56c6.412 2.31 8.209 4.11 8.209 7.192s-2.31 5.907-6.415 5.907c-4.873 0-8.468-2.825-11.289-10.532l-1.797.516.258 11.302c3.079 1.283 8.722 2.313 13.598 2.313 10.007 0 16.423-5.14 16.423-13.102 0-5.395-2.824-8.476-9.495-11.047-7.186-2.824-9.749-4.622-9.749-7.963 0-3.339 2.313-5.652 5.392-5.652 4.615 0 7.694 2.826 10.007 9.763l1.794-.514-.262-10.017zm-108.532-1.028c-4.36-2.566-12.059-1.285-16.163 7.964l.255-8.99-17.189 3.339v1.54l1.796.257c2.311.259 3.335 1.542 3.593 4.882.513 6.165.256 16.956 0 22.35-.258 3.079-1.282 4.62-3.593 4.878l-1.796.258v2.055h23.86v-2.055l-3.078-.258c-2.565-.258-3.335-1.799-3.593-4.879-.513-4.882-.513-14.642-.255-20.807 1.281-1.8 6.926-3.34 12.057 0l4.106-10.534z" fill="#1E2949"/></svg>
